images/logo-whatsapp.svg

<svg fill="none" height="24" viewBox="0 0 24 24" width="24" xmlns="http://www.w3.org/2000/svg" xmlns:xlink="http://www.w3.org/1999/xlink"><linearGradient id="a" gradientUnits="userSpaceOnUse" x1="1158.85" x2="1158.85" y1="2309.67" y2=".414154"><stop offset="0" stop-color="#2e783b"/><stop offset="1" stop-color="#36b23f"/></linearGradient><linearGradient id="b" gradientUnits="userSpaceOnUse" x1="1200" x2="1200" y1="2392.07" y2="0"><stop offset="0" stop-color="#f9f9f9"/><stop offset="1" stop-color="#fff"/></linearGradient><clipPath id="c"><path d="m0 0h24v24h-24z"/></clipPath><g clip-path="url(#c)"><path d="m.512212 11.8564c-.000563 2.0165.530438 3.9854 1.540128 5.7208l-1.636691 5.9295 6.115501-1.5911c1.69146.9137 3.58665 1.3925 5.51245 1.3926h.0051c6.3577 0 11.5329-5.1333 11.5357-11.4428.0012-3.05739-1.1977-5.93236-3.3759-8.09534-2.1778-2.16279-5.0742-3.354511-8.1603-3.355906-6.35836 0-11.533269 5.133026-11.535894 11.442246" fill="url(#a)"/><path d="m.100313 11.8527c-.0006567 2.089.549374 4.1283 1.595057 5.9259l-1.69537 6.1421 6.33478-1.6481c1.74544.9442 3.71062 1.4421 5.71032 1.4428h.0051c6.5858 0 11.947-5.3179 11.9498-11.8533.0011-3.16722-1.2409-6.14554-3.4969-8.38601-2.2563-2.24018-5.2563-3.47478767-8.4529-3.47609-6.58683 0-11.947262 5.31721-11.949887 11.8527zm3.772497 5.6163-.23653-.3725c-.99431-1.5688-1.51912-3.3816-1.51837-5.2431.00215-5.4321 4.45753-9.85154 9.93609-9.85154 2.6531.00112 5.1465 1.02735 7.0219 2.8893 1.8753 1.86214 2.9072 4.33749 2.9065 6.97024-.0024 5.4321-4.4579 9.8521-9.9322 9.8521h-.0039c-1.7825-.0009-3.53061-.4759-5.05518-1.3735l-.36281-.2135-3.75918.978 1.00368-3.6356z" fill="url(#b)"/><path d="m9.06358 6.89749c-.22368-.4933-.45909-.50325-.67181-.5119-.17419-.00745-.37331-.00689-.57225-.00689-.19912 0-.52265.07433-.79612.37061-.27375.29656-1.04513 1.01321-1.04513 2.47079 0 1.4577 1.06997 2.8663 1.21913 3.0642.14934.1975 2.06559 3.2844 5.1005 4.4719 2.5222.9869 3.0355.7906 3.5829.7411.5475-.0493 1.7666-.7165 2.0153-1.4083.249-.6917.249-1.2846.1743-1.4085-.0746-.1235-.2737-.1976-.5723-.3457-.2987-.1482-1.7666-.8649-2.0403-.9638-.2737-.0988-.4728-.1481-.6719.1485-.1991.2962-.7709.9634-.9452 1.161-.1741.198-.3484.2227-.6469.0745-.2987-.1487-1.2603-.4611-2.4012-1.4703-.88761-.7853-1.48686-1.7551-1.66105-2.0518-.17418-.2962-.01865-.4567.13107-.6043.13415-.1328.29868-.346.44812-.5189.14888-.17304.19856-.29649.29816-.49407.0996-.19777.0497-.37079-.02478-.51897-.07482-.14819-.65504-1.6134-.92054-2.19917z" fill="#fff"/></g></svg>

<svg width="24" height="24" viewBox="0 0 24 24" fill="none" xmlns="http://www.w3.org/2000/svg">
<g clip-path="url(#clip0_7238_69846)">
<path d="M0.512212 11.8564C0.511649 13.8729 1.04265 15.8418 2.05234 17.5772L0.415649 23.5067L6.53115 21.9156C8.22261 22.8293 10.1178 23.3081 12.0436 23.3082H12.0487C18.4064 23.3082 23.5816 18.1749 23.5844 11.8654C23.5856 8.80801 22.3867 5.93304 20.2085 3.77006C18.0307 1.60727 15.1343 0.415549 12.0482 0.414154C5.68984 0.414154 0.514931 5.54718 0.512306 11.8564" fill="url(#paint0_linear_7238_69846)"/>
<path d="M0.100313 11.8527C0.0996563 13.9417 0.649687 15.981 1.69537 17.7786L0 23.9207L6.33478 22.2726C8.08022 23.2168 10.0454 23.7147 12.0451 23.7154H12.0502C18.636 23.7154 23.9972 18.3975 24 11.8621C24.0011 8.69488 22.7591 5.71656 20.5031 3.47609C18.2468 1.23591 15.2468 0.00130233 12.0502 0C5.46337 0 0.102938 5.31721 0.100313 11.8527ZM3.87281 17.469L3.63628 17.0965C2.64197 15.5277 2.11716 13.7149 2.11791 11.8534C2.12006 6.4213 6.57544 2.00186 12.054 2.00186C14.7071 2.00298 17.2005 3.02921 19.0759 4.89116C20.9512 6.7533 21.9831 9.22865 21.9824 11.8614C21.98 17.2935 17.5245 21.7135 12.0502 21.7135H12.0463C10.2638 21.7126 8.51569 21.2376 6.99112 20.34L6.62831 20.1265L2.86913 21.1045L3.87281 17.4689V17.469Z" fill="url(#paint1_linear_7238_69846)"/>
<path d="M9.06358 6.89749C8.8399 6.40419 8.60449 6.39424 8.39177 6.38559C8.21758 6.37814 8.01846 6.3787 7.81952 6.3787C7.6204 6.3787 7.29687 6.45303 7.0234 6.74931C6.74965 7.04587 5.97827 7.76252 5.97827 9.2201C5.97827 10.6778 7.04824 12.0864 7.1974 12.2843C7.34674 12.4818 9.26299 15.5687 12.2979 16.7562C14.8201 17.7431 15.3334 17.5468 15.8808 17.4973C16.4283 17.448 17.6474 16.7808 17.8961 16.089C18.1451 15.3973 18.1451 14.8044 18.0704 14.6805C17.9958 14.557 17.7967 14.4829 17.4981 14.3348C17.1994 14.1866 15.7315 13.4699 15.4578 13.371C15.1841 13.2722 14.985 13.2229 14.7859 13.5195C14.5868 13.8157 14.015 14.4829 13.8407 14.6805C13.6666 14.8785 13.4923 14.9032 13.1938 14.755C12.8951 14.6063 11.9335 14.2939 10.7926 13.2847C9.90499 12.4994 9.30574 11.5296 9.13155 11.2329C8.95737 10.9367 9.1129 10.7762 9.26262 10.6286C9.39677 10.4958 9.5613 10.2826 9.71074 10.1097C9.85962 9.93666 9.9093 9.81321 10.0089 9.61563C10.1085 9.41786 10.0586 9.24484 9.98412 9.09666C9.9093 8.94847 9.32908 7.48326 9.06358 6.89749Z" fill="white"/>
</g>
<defs>
<linearGradient id="paint0_linear_7238_69846" x1="1158.85" y1="2309.67" x2="1158.85" y2="0.414154" gradientUnits="userSpaceOnUse">
<stop stop-color="#2E783B"/>
<stop offset="1" stop-color="#36B23F"/>
</linearGradient>
<linearGradient id="paint1_linear_7238_69846" x1="1200" y1="2392.07" x2="1200" y2="0" gradientUnits="userSpaceOnUse">
<stop stop-color="#F9F9F9"/>
<stop offset="1" stop-color="white"/>
</linearGradient>
<clipPath id="clip0_7238_69846">
<rect width="24" height="24" fill="white"/>
</clipPath>
</defs>
</svg>
